client/src/assets/public/images/icons/close_circle_white.svg

<?xml version="1.0" encoding="UTF-8"?>
<svg width="56px" height="56px" viewBox="0 0 56 56" version="1.1" xmlns="http://www.w3.org/2000/svg" xmlns:xlink="http://www.w3.org/1999/xlink">
    <!-- Generator: Sketch 48.2 (47327) - http://www.bohemiancoding.com/sketch -->
    <title>close</title>
    <desc>Created with Sketch.</desc>
    <defs>
        <path d="M952,48 C938.742308,48 928,58.7423077 928,72 C928,85.2576923 938.742308,96 952,96 C965.257692,96 976,85.2576923 976,72 C976,58.7423077 965.257692,48 952,48 Z M958.080769,80.6884615 L952,74.6076923 L945.919231,80.6884615 C945.203846,81.4038462 944.026923,81.4038462 943.311538,80.6884615 C942.953846,80.3307692 942.769231,79.8576923 942.769231,79.3846154 C942.769231,78.9115385 942.953846,78.4384615 943.311538,78.0807692 L949.392308,72 L943.311538,65.9192308 C942.953846,65.5615385 942.769231,65.0884615 942.769231,64.6153846 C942.769231,64.1423077 942.953846,63.6692308 943.311538,63.3115385 C944.026923,62.5961538 945.203846,62.5961538 945.919231,63.3115385 L952,69.3923077 L958.080769,63.3115385 C958.796154,62.5961538 959.973077,62.5961538 960.688462,63.3115385 C961.403846,64.0269231 961.403846,65.2038462 960.688462,65.9192308 L954.607692,72 L960.688462,78.0807692 C961.403846,78.7961538 961.403846,79.9730769 960.688462,80.6884615 C959.973077,81.4153846 958.796154,81.4153846 958.080769,80.6884615 Z" id="path-1"></path>
        <filter x="-13.5%" y="-11.5%" width="127.1%" height="127.1%" filterUnits="objectBoundingBox" id="filter-2">
            <feOffset dx="0" dy="1" in="SourceAlpha" result="shadowOffsetOuter1"></feOffset>
            <feGaussianBlur stdDeviation="2" in="shadowOffsetOuter1" result="shadowBlurOuter1"></feGaussianBlur>
            <feColorMatrix values="0 0 0 0 0   0 0 0 0 0   0 0 0 0 0  0 0 0 0.24 0" type="matrix" in="shadowBlurOuter1"></feColorMatrix>
        </filter>
    </defs>
    <g id="Home-2" stroke="none" stroke-width="1" fill="none" fill-rule="evenodd" transform="translate(-924.000000, -45.000000)">
        <g id="Login" fill-rule="nonzero">
            <g id="close">
                <use fill="black" fill-opacity="1" filter="url(#filter-2)" xlink:href="#path-1"></use>
                <use fill="#FFFFFF" fill-rule="evenodd" xlink:href="#path-1"></use>
            </g>
        </g>
    </g>
</svg>

<svg xmlns="http://www.w3.org/2000/svg" xmlns:xlink="http://www.w3.org/1999/xlink" width="56" height="56"><defs><path d="M952 48a24 24 0 1 0 0 48 24 24 0 1 0 0-48zm6.08 32.688l-6.08-6.08-6.08 6.08c-.715.715-1.892.715-2.608 0-.358-.358-.542-.83-.542-1.304s.185-.946.542-1.304l6.08-6.08-6.08-6.08c-.358-.358-.542-.83-.542-1.304s.185-.946.542-1.304c.715-.715 1.892-.715 2.608 0l6.08 6.08 6.08-6.08c.715-.715 1.892-.715 2.608 0s.715 1.892 0 2.608l-6.08 6.08 6.08 6.08c.715.715.715 1.892 0 2.608a1.83 1.83 0 0 1-2.608 0z" id="A"/><filter x="-13.5%" y="-11.5%" width="127.1%" height="127.1%" id="B"><feOffset dy="1" in="SourceAlpha"/><feGaussianBlur stdDeviation="2"/><feColorMatrix values="0 0 0 0 0 0 0 0 0 0 0 0 0 0 0 0 0 0 0.24 0"/></filter></defs><g fill-rule="nonzero" transform="translate(-924 -45)"><use fill="#000" filter="url(#B)" xlink:href="#A"/><use fill="#fff" fill-rule="evenodd" xlink:href="#A"/></g></svg>
